static/assets/images/tokens/lusd.svg

<svg width="256" height="256" viewBox="0 0 256 256" fill="none" xmlns="http://www.w3.org/2000/svg">
<path d="M152.228 2.31545L152.182 34.3383C152.182 34.3655 152.19 34.392 152.207 34.4141C152.223 34.4363 152.246 34.4529 152.272 34.4615C165.989 39.1249 176.631 46.9352 184.197 58.9881C185.847 61.6146 187.776 65.8791 189.579 69.026C189.594 69.0523 189.599 69.0835 189.591 69.1132C189.584 69.1428 189.566 69.1685 189.54 69.1849L158.755 88.0502C158.747 88.0557 158.737 88.0594 158.727 88.0612C158.717 88.0629 158.706 88.0626 158.697 88.0603C158.687 88.058 158.677 88.0538 158.669 88.0478C158.661 88.0418 158.654 88.0343 158.648 88.0255C155.785 83.1284 153.02 77.5357 149.296 73.1617C145.509 68.7138 140.966 66.5035 135.259 65.8654C124.46 64.6575 112.746 70.2339 111.669 82.2055C110.798 91.8682 122.402 96.8091 129.455 99.8793C136.647 103.009 143.846 106.121 151.053 109.216C163.356 114.497 175.993 121.725 184.005 132.617C194.478 146.859 195.484 166.365 189.285 182.437C182.734 199.418 169.162 211.984 152.201 218.291C152.111 218.324 152.067 218.389 152.067 218.486L152.083 254.099C139.608 256.449 126.985 256.418 114.212 255.102C113.432 255.022 112.854 254.945 112.478 254.872L112.368 220.324C112.368 220.227 112.321 220.169 112.228 220.148C92.7953 215.736 77.3466 203.403 69.0496 185.228C65.7697 178.047 64.3832 171.232 62.8378 163.807C62.8031 163.636 62.8697 163.527 63.0378 163.481L100.21 153.441C100.225 153.437 100.24 153.436 100.255 153.438C100.269 153.44 100.283 153.446 100.296 153.454C100.308 153.463 100.319 153.473 100.327 153.486C100.335 153.499 100.34 153.513 100.342 153.528C100.98 158.001 101.503 163.057 102.684 167.16C106.214 179.413 116.53 187.701 129.6 186.975C141.556 186.315 152.669 178.767 154.774 166.573C154.964 165.462 155.015 164.229 154.927 162.876C155.004 162.021 154.976 161.175 154.842 160.337C153.722 150.617 145.499 145.722 137.467 141.965C131.044 138.961 124.551 136.117 117.988 133.433C98.0755 125.285 77.4891 113.502 74.0777 89.8797C70.2196 63.1731 86.9233 40.5062 112.346 33.5385C112.439 33.513 112.486 33.4518 112.486 33.355V0.902555L112.582 0.893981C124.457 -0.486408 136.304 -0.268211 148.121 1.54857C149.496 1.76038 150.865 2.016 152.228 2.31545Z" fill="white"/>
<path d="M112.486 0.902555V33.355C112.486 33.4518 112.439 33.513 112.346 33.5385C86.9233 40.5062 70.2196 63.1731 74.0777 89.8797C77.4891 113.502 98.0755 125.285 117.988 133.433C124.551 136.117 131.044 138.961 137.467 141.965C145.499 145.722 153.722 150.617 154.842 160.337L154.927 162.876C155.015 164.229 154.964 165.462 154.774 166.573C152.669 178.767 141.556 186.315 129.6 186.975C116.53 187.701 106.214 179.413 102.684 167.16C101.503 163.057 100.98 158.001 100.342 153.528C100.34 153.513 100.335 153.499 100.327 153.486C100.319 153.473 100.308 153.463 100.296 153.454C100.283 153.446 100.269 153.44 100.255 153.438C100.24 153.436 100.225 153.437 100.21 153.441L63.0378 163.481C62.8697 163.527 62.8031 163.636 62.8378 163.807C64.3832 171.232 65.7697 178.047 69.0496 185.228C77.3466 203.403 92.7953 215.736 112.228 220.148C112.321 220.169 112.368 220.227 112.368 220.324L112.478 254.872C68.4248 249.583 29.9373 221.397 11.5457 181.065C-14.5483 123.836 4.81328 56.0876 57.2589 21.3314C73.9644 10.2609 92.2857 3.4603 112.223 0.929586L112.486 0.902555Z" fill="#58B4E6"/>
<path d="M152.228 2.31545C192.305 9.99249 225.945 36.8882 243.54 73.3781C269.039 126.266 254.349 190.437 209.094 227.401C192.808 240.703 174.293 249.51 153.549 253.823C153.072 253.923 152.584 254.015 152.083 254.099L152.067 218.486C152.067 218.389 152.111 218.324 152.201 218.291C169.162 211.984 182.734 199.418 189.285 182.437C195.484 166.365 194.478 146.859 184.005 132.617C175.993 121.725 163.356 114.497 151.053 109.216C143.846 106.121 136.647 103.009 129.455 99.8793C122.402 96.8091 110.798 91.8682 111.669 82.2055C112.746 70.2339 124.46 64.6575 135.259 65.8654C140.966 66.5035 145.509 68.7138 149.296 73.1617C153.02 77.5357 155.785 83.1284 158.648 88.0255C158.654 88.0343 158.661 88.0418 158.669 88.0478C158.677 88.0538 158.687 88.058 158.697 88.0603C158.706 88.0626 158.717 88.0629 158.727 88.0612C158.737 88.0594 158.747 88.0557 158.755 88.0502L189.54 69.1849C189.566 69.1685 189.584 69.1428 189.591 69.1132C189.599 69.0835 189.594 69.0523 189.579 69.026C187.776 65.8791 185.847 62.1624 184.197 59.5359C176.631 47.483 165.989 39.1249 152.272 34.4615C152.246 34.4529 152.223 34.4363 152.207 34.4141C152.19 34.392 152.182 34.3655 152.182 34.3383L152.228 2.31545Z" fill="#705ED9"/>
</svg>

<svg xmlns="http://www.w3.org/2000/svg" fill="none" viewBox="0 0 256 256"><path fill="#fff" d="m152.228 2.315-.046 32.023q0 .042.025.076a.13.13 0 0 0 .065.047c13.717 4.664 24.359 12.474 31.925 24.527 1.65 2.627 3.579 6.891 5.382 10.038.015.026.02.058.012.087a.12.12 0 0 1-.051.072L158.755 88.05a.07.07 0 0 1-.058.01.1.1 0 0 1-.028-.012.1.1 0 0 1-.021-.023c-2.863-4.897-5.628-10.49-9.352-14.863-3.787-4.448-8.33-6.659-14.037-7.297-10.799-1.207-22.513 4.369-23.59 16.34-.871 9.663 10.733 14.604 17.786 17.674q10.788 4.695 21.598 9.337c12.303 5.281 24.94 12.509 32.952 23.401 10.473 14.242 11.479 33.748 5.28 49.82-6.551 16.981-20.123 29.547-37.084 35.854q-.135.05-.134.195l.016 35.613c-12.475 2.35-25.098 2.319-37.871 1.003q-1.17-.12-1.734-.23l-.11-34.548q0-.145-.14-.176c-19.433-4.412-34.881-16.745-43.178-34.92-3.28-7.181-4.667-13.996-6.212-21.421q-.052-.257.2-.326l37.172-10.04a.1.1 0 0 1 .045-.003.1.1 0 0 1 .041.016.1.1 0 0 1 .046.074c.638 4.473 1.161 9.529 2.342 13.632 3.53 12.253 13.846 20.541 26.916 19.815 11.956-.66 23.069-8.208 25.174-20.402q.285-1.667.153-3.697.116-1.282-.085-2.539c-1.12-9.72-9.343-14.615-17.375-18.372a432 432 0 0 0-19.479-8.532c-19.912-8.148-40.499-19.931-43.91-43.553-3.858-26.707 12.845-49.374 38.268-56.341q.14-.039.14-.184V.903l.096-.009a132.3 132.3 0 0 1 35.539.655q2.063.317 4.107.766"/><path fill="#58B4E6" d="M112.486.903v32.452q0 .145-.14.184c-25.423 6.967-42.126 29.634-38.268 56.34 3.411 23.623 23.998 35.406 43.91 43.554a432 432 0 0 1 19.479 8.532c8.032 3.757 16.255 8.652 17.375 18.372l.085 2.539q.132 2.03-.153 3.697c-2.105 12.194-13.218 19.742-25.174 20.402-13.07.726-23.386-7.562-26.916-19.815-1.181-4.103-1.704-9.159-2.342-13.632a.1.1 0 0 0-.046-.074.1.1 0 0 0-.041-.016.1.1 0 0 0-.045.003l-37.172 10.04q-.252.07-.2.326c1.545 7.425 2.932 14.24 6.212 21.421 8.297 18.175 23.745 30.508 43.178 34.92q.14.031.14.176l.11 34.548c-44.053-5.289-82.54-33.475-100.932-73.807-26.094-57.229-6.733-124.977 45.713-159.734Q82.317 4.726 112.223.93z"/><path fill="#705ED9" d="M152.228 2.315c40.077 7.677 73.717 34.573 91.312 71.063 25.499 52.888 10.809 117.059-34.446 154.023q-24.429 19.953-55.545 26.422-.715.15-1.466.276l-.016-35.613q0-.146.134-.195c16.961-6.307 30.533-18.873 37.084-35.854 6.199-16.072 5.193-35.578-5.28-49.82-8.012-10.892-20.649-18.12-32.952-23.401a4882 4882 0 0 1-21.598-9.337c-7.053-3.07-18.657-8.01-17.786-17.674 1.077-11.971 12.791-17.547 23.59-16.34 5.707.639 10.25 2.849 14.037 7.297 3.724 4.374 6.489 9.966 9.352 14.863a.1.1 0 0 0 .021.023q.013.009.028.012a.08.08 0 0 0 .058-.01l30.785-18.865a.12.12 0 0 0 .051-.072.12.12 0 0 0-.012-.087c-1.803-3.147-3.732-6.864-5.382-9.49q-11.35-18.08-31.925-25.074a.13.13 0 0 1-.09-.124z"/></svg>
